!!!OTL: GESTERN ABEND IN DER STILLEN RUH
!!!ARE: Europa, Mitteleuropa, Deutschland, Hessen, Darmstadt, Dreieichenhain
!!!SCT: E0522A
!!!YEM: Copyright 1995, estate of Helmut Schaffrath.
**kern
*ICvox
*Ivox
!! Mixed meters:  4/4; 3/4; 2/4
*M3/4
*k[b-]
*F:
{8f
8g
=1
8.a
16a
8a
8a
4a
8g
8a
=2
2b-
4r}
=3
{8b-
8a
=4
*M4/4
8.g
16g
8g
8g
4g
8f
8g
=5
2a
2r}
=6
*M3/4
{8.cc
16b-
8a
8a
4cc
=7
8g
8g
8g
16f
16g
4a
=8
*M2/4
4r}
{8f
8g
=9
*M4/4
8.a
16a
8a
8a
4cc
8b-
8a
=10
4.g}
{8a
8cc
8b-
4g
=11
4f
2r}
==
!!!AGN: Liebes - Lied
!!!ONB: ESAC (Essen Associative Code) Database: ERK1
!!!AMT: irregular
!!!AIN: vox
!!!EED: Helmut Schaffrath
!!!EEV: 1.0
*-
